assets/img/braze_icons/film-01.svg

<svg fill="none" height="24" viewBox="0 0 24 24" width="24" xmlns="http://www.w3.org/2000/svg"><path clip-rule="evenodd" d="m6.7587 1c-.80496-.000012-1.46933-.000022-2.01052.04419-.5621.04593-1.07881.14449-1.56414.39179-.75265.38349-1.36457.99541-1.74806 1.74806-.2473.48533-.34586 1.00204-.39179 1.56414-.044212.54119-.044202 1.20554-.04419 2.01051v10.48261c-.000012.805-.000022 1.4693.04419 2.0105.04593.5621.14449 1.0788.39179 1.5642.38349.7526.99541 1.3645 1.74806 1.748.48533.2473 1.00204.3459 1.56414.3918.54119.0442 1.20554.0442 2.0105.0442h10.48262c.805 0 1.4693 0 2.0105-.0442.5621-.0459 1.0788-.1445 1.5642-.3918.7526-.3835 1.3645-.9954 1.748-1.748.2473-.4854.3459-1.0021.3918-1.5642.0442-.5412.0442-1.2055.0442-2.0105v-10.48262c0-.80496 0-1.46931-.0442-2.0105-.0459-.5621-.1445-1.07881-.3918-1.56414-.3835-.75265-.9954-1.36457-1.748-1.74806-.4854-.2473-1.0021-.34586-1.5642-.39179-.5412-.044212-1.2055-.044202-2.0105-.04419zm11.2413 5v-2.99824c.4455.00313.7954.01181 1.089.03579.4384.03582.6626.10075.819.18044.3763.19174.6823.49771.874.87403.0797.1564.1446.3806.1804.81902.024.29359.0327.64343.0358 1.08896zm0 2v3h3v-3zm0 8v-3h3v3zm0 2v2.9982c.4455-.0031.7954-.0118 1.089-.0358.4384-.0358.6626-.1007.819-.1804.3763-.1917.6823-.4977.874-.874.0797-.1564.1446-.3806.1804-.819.024-.2936.0327-.6435.0358-1.089zm-13.08896-14.96245c.29359-.02398.64343-.03266 1.08896-.03579v2.99824h-2.99824c.00313-.44553.01181-.79537.03579-1.08896.03582-.43842.10075-.66262.18044-.81902.19174-.37632.49771-.68229.87403-.87403.1564-.07969.3806-.14462.81902-.18044zm-1.91104 4.96245h3v3h-3zm0 5h3v3h-3zm.00176 5h2.99824v2.9982c-.44553-.0031-.79537-.0118-1.08896-.0358-.43842-.0358-.66262-.1007-.81902-.1804-.37632-.1917-.68229-.4977-.87403-.874-.07969-.1564-.14462-.3806-.18044-.819-.02398-.2936-.03266-.6435-.03579-1.089z" fill="#801ed7" fill-rule="evenodd"/></svg>

<svg width="24" height="24" viewBox="0 0 24 24" fill="none" xmlns="http://www.w3.org/2000/svg">
<path fill-rule="evenodd" clip-rule="evenodd" d="M6.7587 1C5.95374 0.999988 5.28937 0.999978 4.74818 1.04419C4.18608 1.09012 3.66937 1.18868 3.18404 1.43598C2.43139 1.81947 1.81947 2.43139 1.43598 3.18404C1.18868 3.66937 1.09012 4.18608 1.04419 4.74818C0.999978 5.28937 0.999988 5.95372 1 6.75869V17.2413C0.999988 18.0463 0.999978 18.7106 1.04419 19.2518C1.09012 19.8139 1.18868 20.3306 1.43598 20.816C1.81947 21.5686 2.43139 22.1805 3.18404 22.564C3.66937 22.8113 4.18608 22.9099 4.74818 22.9558C5.28937 23 5.95372 23 6.75868 23H17.2413C18.0463 23 18.7106 23 19.2518 22.9558C19.8139 22.9099 20.3306 22.8113 20.816 22.564C21.5686 22.1805 22.1805 21.5686 22.564 20.816C22.8113 20.3306 22.9099 19.8139 22.9558 19.2518C23 18.7106 23 18.0463 23 17.2413V6.75868C23 5.95372 23 5.28937 22.9558 4.74818C22.9099 4.18608 22.8113 3.66937 22.564 3.18404C22.1805 2.43139 21.5686 1.81947 20.816 1.43598C20.3306 1.18868 19.8139 1.09012 19.2518 1.04419C18.7106 0.999978 18.0463 0.999988 17.2413 1H6.7587ZM18 6V3.00176C18.4455 3.00489 18.7954 3.01357 19.089 3.03755C19.5274 3.07337 19.7516 3.1383 19.908 3.21799C20.2843 3.40973 20.5903 3.7157 20.782 4.09202C20.8617 4.24842 20.9266 4.47262 20.9624 4.91104C20.9864 5.20463 20.9951 5.55447 20.9982 6H18ZM18 8V11H21V8H18ZM18 16V13H21V16H18ZM18 18V20.9982C18.4455 20.9951 18.7954 20.9864 19.089 20.9624C19.5274 20.9266 19.7516 20.8617 19.908 20.782C20.2843 20.5903 20.5903 20.2843 20.782 19.908C20.8617 19.7516 20.9266 19.5274 20.9624 19.089C20.9864 18.7954 20.9951 18.4455 20.9982 18H18ZM4.91104 3.03755C5.20463 3.01357 5.55447 3.00489 6 3.00176V6H3.00176C3.00489 5.55447 3.01357 5.20463 3.03755 4.91104C3.07337 4.47262 3.1383 4.24842 3.21799 4.09202C3.40973 3.7157 3.7157 3.40973 4.09202 3.21799C4.24842 3.1383 4.47262 3.07337 4.91104 3.03755ZM3 8H6V11H3V8ZM3 13H6V16H3V13ZM3.00176 18H6V20.9982C5.55447 20.9951 5.20463 20.9864 4.91104 20.9624C4.47262 20.9266 4.24842 20.8617 4.09202 20.782C3.7157 20.5903 3.40973 20.2843 3.21799 19.908C3.1383 19.7516 3.07337 19.5274 3.03755 19.089C3.01357 18.7954 3.00489 18.4455 3.00176 18Z" fill="#801ED7"/>
</svg>
